X: 1
T: Brosna No.2
Z: Michael
S: https://thesession.org/tunes/15319#setting28549
R: polka
M: 2/4
L: 1/8
K: Dmaj
D3|:BA FF|BA FD|EF EE|D4|BA FF|BA FE|FE D2|A,B, A,2:||
d2 cd|BA FA|dB cA|B3c|d2 cd|BA FB|AF EF|DE FA:||
dAeAf2|ed2|Bcd2A|B2AF|B2AF|AFEF|D4:||
